X:4
T:1st Cello Suite, 4 - Giquefrom
C:J.S. Bach
N:Edited by Jack Roberts
L:1/8
Q:1/4=76
M:6/8
K:D
|:c | dAB BGA | AdA FDA | d/e/fe e/f/gf | [f3A3D3] [e2A2]e | fcd dBd | Bc cAc | 
dfd BFA | ^GBe E2B | =cBd dce | ed=f fed | =cBA EA^G | AEC A,3 :|:e4 | ecd dBc | 
c/d/ec Agf | fde ecd | d/e/fd Gag | eag Agf | dgf Gfe | dcB FB^A | BFD B,2d | 
ecd ^g/a/bc | dB=c f/g/aB | =cAB e/f/ge | c/d/ec A2e | =feg gfa | ag_b bag | =fed Adc | 
dF/G/A DFA | dB/=c/d FGB | ec/d/e ^GAc | fd/e/f ^ABg | Bca cdb | AB/c/d/e/ fdc | 
dAF D3 :| 
 

